_includes/icons/ios-import.svg

<svg fill="#666" height="50" viewBox="0 0 50 50" width="50" xmlns="http://www.w3.org/2000/svg"><path d="m1.78125-.03125c-.480469.109375-.820312.539063-.8125 1.03125v48c.003906.566406.464844 1.027344 1.03125 1.03125h30c.566406-.003906 1.027344-.464844 1.03125-1.03125v-10h-2.0625v8.96875h-27.9375v-45.9375h27.9375v8.96875h2.0625v-10c-.003906-.566406-.464844-1.0273438-1.03125-1.03125h-30c-.074219-.0078125-.144531-.0078125-.21875 0zm23 15.125c-.226562.03125-.4375.144531-.59375.3125l-8.90625 8.875-.6875.71875.6875.71875 8.90625 8.875c.242188.296875.628906.433594 1.003906.347656.371094-.085937.664063-.378906.75-.75.085938-.375-.050781-.761718-.347656-1.003906l-7.15625-7.1875h29.5625c.359375.003906.695313-.183594.878906-.496094.179688-.3125.179688-.695312 0-1.007812-.183593-.3125-.519531-.5-.878906-.496094h-29.5625l7.15625-7.1875c.3125-.296875.402344-.761719.21875-1.152344-.1875-.394531-.601562-.621093-1.03125-.566406z"/></svg>

<svg xmlns="http://www.w3.org/2000/svg" viewBox="0 0 50 50" width="50" height="50" fill="#666"><path d="M 1.78125 -0.03125 C 1.300781 0.078125 0.960938 0.507813 0.96875 1 L 0.96875 49 C 0.972656 49.566406 1.433594 50.027344 2 50.03125 L 32 50.03125 C 32.566406 50.027344 33.027344 49.566406 33.03125 49 L 33.03125 39 L 30.96875 39 L 30.96875 47.96875 L 3.03125 47.96875 L 3.03125 2.03125 L 30.96875 2.03125 L 30.96875 11 L 33.03125 11 L 33.03125 1 C 33.027344 0.433594 32.566406 -0.0273438 32 -0.03125 L 2 -0.03125 C 1.925781 -0.0390625 1.855469 -0.0390625 1.78125 -0.03125 Z M 24.78125 15.09375 C 24.554688 15.125 24.34375 15.238281 24.1875 15.40625 L 15.28125 24.28125 L 14.59375 25 L 15.28125 25.71875 L 24.1875 34.59375 C 24.429688 34.890625 24.816406 35.027344 25.191406 34.941406 C 25.5625 34.855469 25.855469 34.5625 25.941406 34.191406 C 26.027344 33.816406 25.890625 33.429688 25.59375 33.1875 L 18.4375 26 L 48 26 C 48.359375 26.003906 48.695313 25.816406 48.878906 25.503906 C 49.058594 25.191406 49.058594 24.808594 48.878906 24.496094 C 48.695313 24.183594 48.359375 23.996094 48 24 L 18.4375 24 L 25.59375 16.8125 C 25.90625 16.515625 25.996094 16.050781 25.8125 15.660156 C 25.625 15.265625 25.210938 15.039063 24.78125 15.09375 Z"/></svg>
